X:118
T:Farewell to Kandolhudhoo 
R:reel
C: 2004, 2010 L.E. McCullough 
M:4/4
L:1/8
K:Emin
|: ~B3A AG (3FGA | GFED ~E3F | ~D2FD F~A3 | GFED EFGA |
 ~B3A AG (3FGA | DFAd ~f3d | ~g3e feed |1 (3Bcd fg ~e3A :|2 (3Bcd fg ~e3e |]
 edef gfed | eBef gafe | f~B3 fBfe | fBgB aBfd |
 edef gfed | eBGB (3FGA FG | Adfe dBAG |1 (3FGA FD ~E3e :|2 (3FGA FD ~E3A |]

